X:1
T:Melodie: Johann Baptista Serranus Text: Paul Eber Satz: Johann Hermann Schein
T:Wenn wir in höchsten Nöten sein
%%score [ 1 2 3 4 ]
L:1/8
Q:1/4=240
M:none
K:F
V:1 treble nm="Cantus"
V:2 treble nm="Altus"
V:3 treble-8 nm="Tenor"
V:4 bass nm="Bassus"
V:1
 F8 F4 G4 | A8 G4 B8 | A4 G8 F8 x4 | A8 B4 A4 | G4 F4 E8 | F8 | G8 c8 | B4 A4 G8 | E8 F8 | D8 C8 | %10
w: Wenn wir in|höch- sten Nö-|* ten sein|und wis- sen|nicht, wo aus|noch|ein, und|fin- den we-|der Hif|noch Rat,|
w: und he- ben|un- ser Aug|* und Herz|zu dir in|wah- rer Reu|und|Schmerz und|fle- hen um|Be- gna-|di- gung|
w: Drum kom- men|wir, o Her-|* re Gott,|und kla- gen|dir all uns-|re|Not weil|wir jetzt stehn|ver- las-|sen gar|
w: auf daß von|Her- zen kön-|* nen wir|nach- mals mit|Freu- den dan-|ken|dir, ge-|hor- sam sein|nach dei-|nem Wort,|
 A8 B4 A4 | G4 F4 A8 x4 | G8"^-" x16 |] %13
w: ob wir gleich|sor- gen früh|und|
w: und al- ler|Stra- fen Lin-|de-|
w: in gro- ßer|Trüb- sal und|Ge-|
w: dich all- zeit|prei- sen hier|und|
V:2
 C8 D4 E4 | F8 E4 G6 x2 | F2 F8 E4 F8 x2 | F8 F4 F4 | E4 D4 ^C8 | D8 | E8 F8 | F4 F4 D8 | C8 C8 | %9
w: Wenn wir in|höch- sten Nö-|* * ten sein|und wis- sen|nicht, wo aus|noch|ein und|fin- den we-|der Hif|
w: und he- ben|un- ser Aug|* * und Herz|zu dir in|wah- rer Reu|und|Schmerz und|fle- hen um|Be- gna-|
w: Drum kom- men|wir, o Her-|* * re Gott,|und kla- gen|dir all uns-|re|Not weil|wir jetzt stehn|ver- las-|
w: auf daß von|Her- zen kön-|* * nen wir|nach- mals mit|Freu- den dan-|ken|dir ge-|hor- sam sein|nach dei-|
 =B,8 C8 | F8 F4 F4 | E4 D4 E4 F8 | E4"^-" x16 x4 |] %13
w: noch Rat,|ob wir gleich|sor- gen früh *|und|
w: di- gung|und al- ler|Stra- fen Lin *|de-|
w: sen gar|in gro- ßer|Trüb- sal und *|Ge-|
w: nem Wort,|dich all- zeit|prei- sen hier *|und|
V:3
 A8 A4 c4 | c8 c4 d8 | c4 d4 c4 A8 x4 | c8 d4 c4 | c4 A4 A8 | A8 | c8 c8 | d4 c4 B8 | A8 A8 | %9
w: Wenn wir in|höch- sten Nö-|* * ten sein|und wis- sen|nicht, wo aus|noch|ein, und|fin- den we-|der Hif|
w: und he- ben|un- ser Aug|* * und Herz|zu dir in|wah- rer Reu|und|Schmerz und|fle- hen um|Be- gna-|
w: Drum kom- men|wir, o Her-|* * re Gott,|und kla- gen|dir all uns-|re|Not weil|wir jetzt stehn|ver- las-|
w: auf daß von|Her- zen kön-|* * nen wir|nach- mals mit|Freu- den dan-|ken|dir, ge-|hor- sam sein|nach dei-|
 G8 G8 | c8 d4 c4 | c4 A4 c8 x4 | c8"^-" x16 |] %13
w: noch Rat,|ob wir gleich|sor- gen früh|und|
w: di- gung|und al- ler|Stra- fen Lin-|de-|
w: sen gar|in gro- ßer|Trüb- sal und|Ge-|
w: nem Wort,|dich all- zeit|prei- sen hier|und|
V:4
 F,8 D,4 C,4 | F,8 C,4 G,,8 | A,,4 B,,4 C,4 F,,8 x4 | F,8 B,,4 F,,4 | C,4 D,4 A,,8 | D,8 | %6
w: Wenn wir in|höch- sten Nö-|* * ten sein|und wis- sen|nicht, wo aus|noch|
w: und he- ben|un- ser Aug|* * und Herz|zu dir in|wah- rer Reu|und|
w: Drum kom- men|wir, o Her-|* * re Gott,|und kla- gen|dir all uns-|re|
w: auf daß von|Her- zen kön-|* * nen wir|nach- mals mit|Freu- den dan-|ken|
 C,8"^2. so ist dies unser Trost allein,\ndass wir  zusammen insgemein\ndich anrufen, o treuer Gott,\num Rettung aus der Angst und Not,""^4. die du verheißest gnädiglich\nallen, die darum bitten dich\nim Namen deins Sohns Jesu Christ,\nder unser Heil und Fürsprech ist.""^6. Sieh nicht an unsre Sünde groß,\nsprich uns davon aus Gnaden los,\nsteh uns in unserm Elend bei,\nmach uns von allen Plagen frei," A,,8 | %7
w: ein, und|
w: Schmerz und|
w: Not weil|
w: dir, ge-|
 B,,4 F,,4 G,,8 | A,,8 F,,8 | G,,8 C,8 | F,,8 B,,4 F,,4 | C,4 D,4 A,,6 B,,2 x4 | C,4 C,4"^-" x16 |] %13
w: fin- den we-|der Hif|noch Rat,|ob wir gleich|sor- gen früh *|* und|
w: fle- hen um|Be- gna-|di- gung|und al- ler|Stra- fen Lin- *|* de-|
w: wir jetzt stehn|ver- las-|sen gar|in gro- ßer|Trüb- sal und *|* Ge-|
w: hor- sam sein|nach dei-|nem Wort,|dich all- zeit|prei- sen hier *|* und|

